app/dist/common/images/ava-risk-group.svg

<svg fill="none" height="18" width="18" xmlns="http://www.w3.org/2000/svg"><path d="m0 0h18v18h-18z" fill="#f0f3fa"/><path d="m9.032 12-2.368-5.996h.658l1.71 4.385 1.695-4.385h.673z" fill="#856e4b"/><path clip-rule="evenodd" d="m3 12 2.514-5.996 2.539 5.996h-.633l-.565-1.332h-2.665l-.558 1.332zm1.469-1.999h2.104l-1.059-2.496-1.044 2.495zm5.478 1.999 2.514-5.996 2.539 5.996h-.632l-.565-1.332h-2.666l-.558 1.332zm1.469-1.999h2.104l-1.059-2.496-1.045 2.495z" fill="#1c3646" fill-rule="evenodd"/></svg>

<!-- by TradingView --><svg width="18" height="18" fill="none" xmlns="http://www.w3.org/2000/svg"><path fill="#F0F3FA" d="M0 0h18v18H0z"/><path d="M9.032 12 6.664 6.004h.658l1.71 4.385 1.695-4.385h.673L9.032 12Z" fill="#856E4B"/><path fill-rule="evenodd" clip-rule="evenodd" d="m3 12 2.514-5.996L8.053 12H7.42l-.565-1.332H4.19L3.632 12H3Zm1.469-1.999h2.104L5.514 7.505 4.47 10ZM9.947 12l2.514-5.996L15 12h-.632l-.565-1.332h-2.666L10.579 12h-.632Zm1.469-1.999h2.104l-1.059-2.496L11.416 10Z" fill="#1C3646"/></svg>
